X:1
T:Disposto ho di seguirti
T:Giovanni Animuccia
T:Source : Libro primo delle Laude spirituali a tre voci---Roma---A.Gardano---1583. Editor : André Vierendeels (23/11/17). Notes : Original clefs : C1, C2, C4 Editorial accidentals above the staff 
T:Disposto ho di seguirti
T:©
T:©
C:Giovanni Animuccia
Z:©
%%score [ 1 2 3 ]
L:1/8
Q:1/4=120
M:3/4
K:F
V:1 treble nm="Soprano" snm="S"
V:2 treble nm="Alto" snm="A"
V:3 treble-8 nm="Tenor" snm="T"
V:1
 z2 z2 F2 | F4 F2 | G4 G2 | A4 A2 | B6 | A4 G2 |"^4)" G4 G2 | A4 A2 ::[M:2/2] z4 G4 | G6 F2 | %10
w: Dis-|po- st'ho|di se-|guir- ti|Ie-|su, spe-|ran- za|mi- a,|per|as- pra'e|
w: |lan- cia'em-|pia'et a-|tro- ce,|che|hai pas-|sa- to'il|Cuo- re|del|mio dol-|
 G2 A2 G4 | G4 c4 | B4 A4 | G8 | F8 :| %15
w: du- ra vi-|a, con|la mia|cro-|ce.|
w: ce Si- gno-|re pas-|sa'il cuor|mi-|o,|
V:2
"^2)" z2 z2 D2 |"^1)" D4 F2 | E4 E2 | F4 F2 | G6 | F4 F2 | E4 E2 | F4 F2 ::[M:2/2] z4 E4 | E6 D2 | %10
w: Dis-|po- st'ho|di se-|guir- ti|Ie-|su, spe-|ran- za|mi- a,|per|as- pra'e|
w: |dio sen-|tir' an-|ch'i o|de|chio- d'il|gran mar-|ti- ro,|che|le tue|
 E2 F2 E4 | E4 F4 | D4 F4- | F4 E4 | F8 :| %15
w: du- ra vi-|a, con|la mia|_ cro-|ce.|
w: man sen- ti-|ro, e'i|pie d'in-|* sie-|me.|
V:3
"^3)" z2 z2 B2 |"^1)""^1)" B4 d2 | c4 c2 | F4 F2 | _E6 | F4 F2 | c4 c2 | F4 F2 ::[M:2/2] z4 c4 | %9
w: Dis-|po- st'ho|di se-|guir- ti|Ie-|su, spe-|ran- za|mi- a,|per|
w: Quel-|le pe-|ne es-|tre- me|del-|le pun-|gen- ti|spi- no,|ch'al-|
 c6 d2 | c2 F2 c4 | c4 F4 | G4 F4 | c8 | F8 :| %15
w: as- pra'e|du- ra vi-|a, con|la mia|cro-|ce.|
w: le tem-|pie di- vi-|ne, in|giu- ria|fe-|ro.|

